svg/fluentui-system-icons/ic_fluent_immersive_reader_28_filled.svg

<svg width="28" height="28" viewBox="0 0 28 28" fill="none" xmlns="http://www.w3.org/2000/svg">
<path d="M11.5 4C12.4793 4 13.3647 4.40223 14 5.05051C14.6353 4.40223 15.5207 4 16.5 4H24C25.1046 4 26 4.89543 26 6V15.5195C25.956 15.479 25.9128 15.441 25.8703 15.4057C25.3295 14.955 24.5971 14.8858 24 15.1685V6H16.5C15.6716 6 15 6.67157 15 7.5V17.0001H14.75C13.7835 17.0001 13 17.7836 13 18.7501V7.5C13 6.67157 12.3284 6 11.5 6H4V22H11.5C12.3284 22 13 21.3284 13 20.5V22.2501C13 22.6962 13.1669 23.1033 13.4418 23.4124C12.8861 23.7836 12.2183 24 11.5 24H4C2.89543 24 2 23.1046 2 22V6C2 4.89543 2.89543 4 4 4H11.5ZM21 23.9751C21.0082 23.9835 21.0165 23.9918 21.0249 24H21V23.9751ZM19.5138 16.048C19.8063 16.1579 20 16.4376 20 16.75V24.25C20 24.5625 19.8063 24.8422 19.5138 24.9521C19.2213 25.062 18.8913 24.9791 18.6856 24.7439L17.1597 23H14.75C14.3358 23 14 22.6642 14 22.25V18.75C14 18.3358 14.3358 18 14.75 18H17.1597L18.6856 16.2562C18.8913 16.021 19.2213 15.9381 19.5138 16.048ZM26.1431 17.3016C25.815 16.7548 25.4783 16.3806 25.2302 16.1739C24.9119 15.9087 24.439 15.9517 24.1739 16.2699C23.9087 16.5881 23.9517 17.061 24.2699 17.3262C24.3967 17.4319 24.6225 17.6828 24.8569 18.0734C25.2583 18.7424 25.5 19.5481 25.5 20.5C25.5 21.4519 25.2583 22.2576 24.8569 22.9266C24.6225 23.3173 24.3967 23.5681 24.2699 23.6739C23.9517 23.939 23.9087 24.4119 24.1739 24.7302C24.439 25.0484 24.9119 25.0914 25.2302 24.8262C25.4783 24.6194 25.815 24.2453 26.1431 23.6984C26.6792 22.8049 27 21.7356 27 20.5C27 19.2644 26.6792 18.1951 26.1431 17.3016ZM23.3741 18.3965C23.135 18.0378 22.8885 17.7914 22.7 17.65C22.3687 17.4015 21.8986 17.4687 21.65 17.8C21.4015 18.1314 21.4687 18.6015 21.8 18.85C21.8616 18.8962 21.9901 19.0247 22.126 19.2286C22.36 19.5795 22.5 19.9997 22.5 20.5C22.5 21.0004 22.36 21.4206 22.126 21.7715C21.9901 21.9753 21.8616 22.1039 21.8 22.15L21.7163 22.223C21.4591 22.4829 21.4241 22.8988 21.65 23.2C21.8986 23.5314 22.3687 23.5986 22.7 23.35C22.8885 23.2087 23.135 22.9622 23.3741 22.6036C23.7651 22.017 24 21.3122 24 20.5C24 19.6879 23.7651 18.9831 23.3741 18.3965Z" fill="#212121"/>
</svg>

<svg xmlns="http://www.w3.org/2000/svg" width="28" height="28"><path d="M11.5 4c.98 0 1.865.402 2.5 1.05A3.49 3.49 0 0 1 16.5 4H24a2 2 0 0 1 2 2v9.52a3.399 3.399 0 0 0-.13-.114 1.75 1.75 0 0 0-1.87-.238V6h-7.5A1.5 1.5 0 0 0 15 7.5V17h-.25A1.75 1.75 0 0 0 13 18.75V7.5A1.5 1.5 0 0 0 11.5 6H4v16h7.5a1.5 1.5 0 0 0 1.5-1.5v1.75c0 .446.167.853.442 1.162A3.484 3.484 0 0 1 11.5 24H4a2 2 0 0 1-2-2V6a2 2 0 0 1 2-2h7.5ZM21 23.975l.025.025H21v-.025Zm-1.486-7.927a.75.75 0 0 1 .486.702v7.5a.75.75 0 0 1-1.314.494L17.16 23h-2.41a.75.75 0 0 1-.75-.75v-3.5a.75.75 0 0 1 .75-.75h2.41l1.526-1.744a.75.75 0 0 1 .828-.208Zm6.63 1.254c-.329-.547-.666-.921-.914-1.128a.75.75 0 1 0-.96 1.152c.127.106.352.357.587.747.401.67.643 1.475.643 2.427s-.242 1.758-.643 2.427c-.235.39-.46.641-.587.747a.75.75 0 1 0 .96 1.152c.248-.207.585-.58.913-1.128.536-.893.857-1.962.857-3.198s-.32-2.305-.857-3.198Zm-2.77 1.095a3.075 3.075 0 0 0-.674-.747.75.75 0 0 0-.9 1.2c.062.046.19.175.326.379.234.35.374.77.374 1.271 0 .5-.14.92-.374 1.271a1.68 1.68 0 0 1-.326.379l-.084.073a.75.75 0 0 0 .984 1.127c.189-.141.435-.388.674-.746A3.734 3.734 0 0 0 24 20.5c0-.812-.235-1.517-.626-2.104Z"/></svg>
